img/sprite/calling.svg

<svg width="20" height="20" viewBox="0 0 20 20" fill="none" xmlns="http://www.w3.org/2000/svg">
<path fill-rule="evenodd" clip-rule="evenodd" d="M5.5479 1.66647C6.47874 1.67897 7.14207 2.37647 7.98124 3.25897C8.18874 3.47647 8.4129 3.71397 8.66374 3.96397C9.87957 5.18063 9.53374 6.17313 9.25457 6.9698C8.95124 7.83897 8.68874 8.58897 10.2604 10.1606C11.8321 11.7323 12.5812 11.4698 13.4496 11.164C14.2471 10.8856 15.2371 10.5373 16.4554 11.754C16.7029 12.0015 16.9362 12.2231 17.1529 12.429C18.0387 13.2723 18.7387 13.9381 18.7505 14.8715C18.7596 15.6665 18.2762 16.4781 17.0829 17.6715L16.5546 17.3131L17.0021 17.749C16.7379 18.0198 16.0354 18.7415 14.6596 18.7498H14.6346C12.5579 18.7498 9.8504 17.0965 6.58707 13.834C3.3104 10.5581 1.65457 7.8423 1.667 5.76147C1.67457 4.38647 2.3954 3.6823 2.66624 3.41813L2.68935 3.39289L2.7454 3.33647C3.94124 2.14063 4.7629 1.64897 5.5479 1.66647ZM5.53207 2.91647H5.5254C5.15119 2.91647 4.58288 3.29147 3.79026 4.06138L3.6311 4.21768L3.6329 4.2173C3.6329 4.2173 3.6193 4.2329 3.59612 4.25654L3.5404 4.3123C3.33874 4.50813 2.92124 4.91563 2.91703 5.76813C2.9104 6.96063 3.69457 9.1748 7.4704 12.9498C11.2279 16.7065 13.4387 17.4998 14.6346 17.4998H14.6521C15.5046 17.4948 15.9112 17.0773 16.1071 16.8765C16.1662 16.8156 16.2146 16.7698 16.2487 16.7423C17.0796 15.9065 17.5046 15.2856 17.5004 14.8865C17.4954 14.4798 16.9896 13.9998 16.2904 13.334C16.0679 13.1231 15.8262 12.8923 15.5712 12.6373C14.9096 11.9781 14.5837 12.0906 13.8629 12.344C12.8671 12.6931 11.5029 13.1715 9.37707 11.044C7.2504 8.91813 7.72707 7.55397 8.07457 6.5573C8.32624 5.8373 8.44124 5.5098 7.7804 4.84813C7.52207 4.5898 7.28957 4.3448 7.0754 4.1198C6.41374 3.4248 5.93624 2.9223 5.53207 2.91647ZM12.7055 4.63105C14.4397 4.96772 15.7788 6.30605 16.1163 8.04105C16.1822 8.38105 15.9613 8.70855 15.623 8.77438C15.5822 8.78188 15.5422 8.78605 15.5022 8.78605C15.2088 8.78605 14.948 8.57938 14.8897 8.28105C14.6497 7.04772 13.6988 6.09688 12.4672 5.85772C12.128 5.79188 11.9072 5.46438 11.973 5.12522C12.0388 4.78605 12.3722 4.56438 12.7055 4.63105ZM12.6556 1.67122C16.0539 2.04872 18.6931 4.68455 19.0739 8.08205C19.1122 8.42538 18.8656 8.73455 18.5231 8.77288C18.4997 8.77538 18.4756 8.77705 18.4522 8.77705C18.1381 8.77705 17.8681 8.54122 17.8322 8.22205C17.5164 5.40872 15.3314 3.22538 12.5172 2.91288C12.1747 2.87455 11.9272 2.56622 11.9656 2.22288C12.0031 1.88038 12.3089 1.62788 12.6556 1.67122Z" fill="#B0B0B2"/>
</svg>

<svg width="20" height="20" fill="none" xmlns="http://www.w3.org/2000/svg"><path fill-rule="evenodd" clip-rule="evenodd" d="M5.548 1.666c.93.013 1.594.71 2.433 1.593.208.217.432.455.683.705 1.216 1.217.87 2.21.59 3.006-.303.869-.565 1.619 1.006 3.19 1.572 1.572 2.321 1.31 3.19 1.004.797-.278 1.787-.627 3.005.59.248.248.481.47.698.675.886.843 1.586 1.51 1.598 2.442.009.795-.475 1.607-1.668 2.8l-.528-.358.447.436c-.264.27-.967.992-2.342 1h-.025c-2.077 0-4.785-1.652-8.048-4.915-3.277-3.276-4.932-5.992-4.92-8.073.008-1.375.728-2.079 1-2.343l.022-.025.056-.057c1.196-1.195 2.018-1.687 2.803-1.67Zm-.016 1.25h-.007c-.374 0-.942.375-1.735 1.145l-.159.157h.002l-.037.039-.056.055c-.201.196-.619.604-.623 1.456-.007 1.193.778 3.407 4.553 7.182 3.758 3.756 5.969 4.55 7.165 4.55h.017c.853-.005 1.26-.423 1.455-.623.06-.061.108-.107.142-.135.83-.836 1.256-1.456 1.251-1.856-.005-.406-.51-.886-1.21-1.552-.222-.21-.464-.442-.719-.697-.661-.659-.987-.546-1.708-.293-.996.35-2.36.828-4.486-1.3-2.127-2.126-1.65-3.49-1.302-4.487.251-.72.366-1.047-.295-1.709-.258-.258-.49-.503-.705-.728-.661-.695-1.139-1.198-1.543-1.204Zm7.174 1.715a4.294 4.294 0 0 1 3.41 3.41.625.625 0 1 1-1.226.24 3.05 3.05 0 0 0-2.423-2.423.624.624 0 1 1 .239-1.227Zm-.05-2.96a7.226 7.226 0 0 1 6.418 6.411.625.625 0 0 1-1.242.14 5.985 5.985 0 0 0-5.315-5.31.625.625 0 0 1-.551-.69.619.619 0 0 1 .69-.55Z" fill="#B0B0B2"/></svg>
